X: 160637
T: Planxty Gavin
M: 6/8
L: 1/8
S: Luke O'Malley vol 1
Z: B.Black
R: jig
K: Edor
BEE BAB | def edB | BAF FEF | DFA BAF |
BEE BAB | def edB | BAF dAF |1 EFE E2 G/A/ :|2\
EFE E2 B ||
e2 f geg | f/g/af edB | BAF FEF | DFA BAF |
e2 f geg | faf edB | BAF dAF |1 EFE E2 B :|2\
EFE E2 z ||
